!!!!SEGMENT: pl-sa--79-a-ii-19--001-017_siwinski-andrzej--missa-pro-defunctis-osanna.krn
!!!cenid: 17xx:309
!!!COM: Siwiński, Andrzej
!!!COM-rismID: pe41011487
!!!CDT: <1725->1725
!!!CNT:
!!!OPR: Missa pro defunctis
!!!OTL: Osanna
!!!OMV: 017
!!!PDT: 1726
!!!AGN: Sacred; Mass
!!!YEC: Copyright 2022 Narodowy Instytut Fryderyka Chopina (https://polishscores.org)
!!!YEM: License CC-BY-4.0 (https://creativecommons.org/licenses/by/4.0)
!!!SMS-siglum: PL-SA
!!!SMS-shelfmark: 79/A II 19
!!!SMS-shelfwork: 001-017 M
!!!NIFC-rismSourceID: 1001070177
!!!NIFC-rismChildID: 1001070177
!!!NIFC-islandoraID: none
!!!URL-pdf-islandora:
!!!URL-scan: https://bc.bdsandomierz.pl/dlibra/publication/1356/edition/1324/content @EN{Scan in the Sandomierz Diocese Digital Library} @PL{Skany w portalu Cyfrowa Biblioteka Diecezjalna w Sandomierzu}
!!!IIIF:
!!!ONB-nifc: Uwaga: części Mszy: Requiem, Kyrie, Dies Irae, Quantus tremor, Tuba mirrum, Mors, Quid sum miser, Rex tremende, Quaerens me, Iuste iudex, Oro supplex, Pie Iesu Domine, Domine Iesu Christe,Quam olim Abrahae, Hostias, Sanctus, Osanna, Benedictus, Agnus Dei
!!!AIN: 1 alto 1 bass 2 oboe 1 organ 1 soprn 1 tenor 2 violn
!!!key: c
**kern	**fba	**kern	**kern	**kern	**text	**mod-text	**kern	**text	**mod-text	**kern	**text	**mod-text	**kern	**text	**mod-text	**kern	**kern
*	*	*group3	*group3	*group2	*	*	*group2	*	*	*group2	*	*	*group2	*	*	*group1	*group1
*part9	*part9	*part8	*part7	*part6	*part6	*part6	*part5	*part5	*part5	*part4	*part4	*part4	*part3	*part3	*part3	*part2	*part1
*staff9	*staff9	*staff8	*staff7	*staff6	*staff6	*staff6	*staff5	*staff5	*staff5	*staff4	*staff4	*staff4	*staff3	*staff3	*staff3	*staff2	*staff1
*I"Baſso pro Organo	*	*I"Violino. 2do	*I"Violino 1mo	*I"Baſso vocali	*	*	*I"Tenore	*	*	*I"Alto.	*	*	*I"Canto.	*	*	*I"Hobois 2do.	*I"Hautbo. 1mo.
*mI"Organo	*	*mI"Violino II	*mI"Violino I	*mI"Basso	*	*	*	*	*	*mI"Alto	*	*	*mI"Soprano	*	*	*mI"Oboe II	*mI"Oboe I
*I'org	*	*I'vl 2	*I'vl 1	*I'B	*	*	*I'T	*	*	*I'A	*	*	*I'S	*	*	*I'ob 2	*I'ob 1
*Iorgan	*	*Ivioln	*Ivioln	*Ibass	*	*	*Itenor	*	*	*Ialto	*	*	*Isoprn	*	*	*Ioboe	*Ioboe
*ICklav	*	*ICstr	*ICstr	*ICvox	*	*	*ICvox	*	*	*ICvox	*	*	*ICvox	*	*	*ICww	*ICww
*IGcont	*	*	*	*	*	*	*	*	*	*	*	*	*	*	*	*	*
*clefF4	*	*clefG2	*clefG2	*clefF4	*	*	*clefC4	*	*	*clefC3	*	*	*clefC1	*	*	*clefG2	*clefG2
*	*	*	*	*	*	*	*mclefGv2	*	*	*mclefG2	*	*	*mclefG2	*	*	*	*
*k[b-e-]	*	*k[b-e-]	*k[b-e-]	*k[b-e-]	*	*	*k[b-e-]	*	*	*k[b-e-]	*	*	*k[b-e-]	*	*	*k[b-e-]	*k[b-e-]
*mk[b-e-a-]	*	*mk[b-e-a-]	*mk[b-e-a-]	*mk[b-e-a-]	*	*	*mk[b-e-a-]	*	*	*mk[b-e-a-]	*	*	*mk[b-e-a-]	*	*	*mk[b-e-a-]	*mk[b-e-a-]
*c:	*	*c:	*c:	*c:	*	*	*c:	*	*	*c:	*	*	*c:	*	*	*c:	*c:
*M6/4	*	*M6/4	*M6/4	*M6/4	*	*	*M6/4	*	*	*M6/4	*	*	*M6/4	*	*	*M6/4	*M6/4
=1	=1	=1	=1	=1	=1	=1	=1	=1	=1	=1	=1	=1	=1	=1	=1	=1	=1
!LO:TX:b:t=Oſanna. Cant. Alt:mod=	!	!LO:TX:b:t=Oſanna:mod=	!LO:TX:a:t=Oſsanna:mod=	!	!	!	!	!	!	!	!	!	!LO:TX:a:i:t=Solo:mod=	!	!	!LO:TX:b:t=Oſanna:mod=	!LO:TX:b:t=Osanna:mod=
!LO:MO:null:mod=!LO&colon;TX&colon;a&colon;i&colon;t=[Solo]	!	!LO:TX:a:t=7:mod=	!LO:TX:a:t=7:mod=	!LO:TX:a:t=7:mod=	!	!	!	!	!	!LO:TX:a:t=7:mod=	!	!	!LO:TX:t=P:problem=nieprecyzyjne podłożenie teksu	!	!	!LO:N:vis=00	!LO:N:vis=0
!null	!	!LO:N:vis=00	!LO:N:vis=00	!LO:N:vis=00	!	!	!LO:N:vis=1	!	!	!LO:N:vis=00	!	!	!	!	!	!	!
2C/	.	00.r	00.r	00.r	.	.	1.r	.	.	00.r	.	.	(4g\	O-	O-	00.r	0.r
.	.	.	.	.	.	.	.	.	.	.	.	.	4cc\	.	.	.	.
4BBn/	6	.	.	.	.	.	.	.	.	.	.	.	4dd\)	.	.	.	.
2.C/	.	.	.	.	.	.	.	.	.	.	.	.	4ee-\	-ſan-	-san-	.	.
.	.	.	.	.	.	.	.	.	.	.	.	.	(4dd\	-na	-na	.	.
.	.	.	.	.	.	.	.	.	.	.	.	.	4cc\)	.	.	.	.
=2	=2	=2	=2	=2	=2	=2	=2	=2	=2	=2	=2	=2	=2	=2	=2	=2	=2
*	*	*	*	*	*	*	*	*	*	*	*	*	*	*ij	*	*	*
!	!	!	!	!	!	!	!LO:TX:t=P:problem=nieprecyzyjne podłożenie teksu	!	!	!	!	!	!	!	!	!	!
!	!	!	!	!	!	!	!LO:SIC:o=4G/	!	!	!	!	!	!	!	!	!	!
2C/	.	.	.	.	.	.	(4G	O-	O-	.	.	.	(4cc\	O-	o-	.	.
!	!	!	!	!	!	!	!LO:SIC:o=(4c\	!	!	!	!	!	!LO:SIC:o=4ee-\)	!	!	!	!
.	.	.	.	.	.	.	4c	-ſan-	.	.	.	.	4ee-	.	.	.	.
!	!	!	!	!	!	!	!	!	!	!	!	!	!LO:SIC:o=4ff\	!	!	!	!
4r	.	.	.	.	.	.	4d\)	.	.	.	.	.	4ff)	.	.	.	.
2.C/	.	.	.	.	.	.	4e-\	.	-san-	.	.	.	4gg\	-ſan-	-san-	.	.
.	.	.	.	.	.	.	(4d\	-na	-na	.	.	.	(4ff\	-na	-na	.	.
.	.	.	.	.	.	.	4c\)	.	.	.	.	.	4ee-\)	.	.	.	.
*	*	*	*	*	*	*	*	*	*	*	*	*	*	*Xij	*	*	*
=3	=3	=3	=3	=3	=3	=3	=3	=3	=3	=3	=3	=3	=3	=3	=3	=3	=3
!	!	!	!	!	!	!	!LO:SIC:o=4d\	!	!	!	!	!	!LO:SIC:o=4ff\	!	!	!	!LO:N:vis=1
2D/	.	.	.	.	.	.	(4d	in	in	.	.	.	(4ff	in	in	.	1.r
.	.	.	.	.	.	.	4c\	.	.	.	.	.	4ee-\	ex-	.	.	.
!	!	!	!	!	!	!	!LO:SIC:o=4Bn\	!	!	!	!	!	!LO:SIC:o=4dd\	!	!	!	!
4G\	.	.	.	.	.	.	4B)	ex-	.	.	.	.	4dd)	.	.	.	.
!	!	!	!	!	!	!	!LO:SIC:o=4c\	!	!	!	!	!	!LO:SIC:o=4ee-\	!	!	!	!
2C/	.	.	.	.	.	.	(4c	cel-	ex-	.	.	.	(4ee-	.	ex-	.	.
!	!	!	!	!	!	!	!	!	!	!	!	!	!LO:SIC:o=(4dd\	!	!	!	!
.	.	.	.	.	.	.	4Bn\	.	.	.	.	.	4dd	-cel-	.	.	.
!	!	!	!	!	!	!	!LO:SIC:o=4c\	!	!	!	!	!	!	!	!	!	!
4F\	.	.	.	.	.	.	4c)	.	.	.	.	.	4cc\)	.	.	.	.
=4	=4	=4	=4	=4	=4	=4	=4	=4	=4	=4	=4	=4	=4	=4	=4	=4	=4-
!	!	!	!	!	!	!	!	!	!	!	!	!	!LO:SIC:o=8dd\L	!	!	!	!LO:N:vis=2
8G\L	.	.	.	.	.	.	(8Bn\L	.	-cel-	.	.	.	(8dd	.	-cel-	.	2.r
!	!	!	!	!	!	!	!LO:SIC:o=8c\J)	!	!	!	!	!	!	!	!	!	!
8F\J	.	.	.	.	.	.	8cJ	.	.	.	.	.	8ee-\J	.	.	.	.
!	!	!	!	!	!	!	!LO:SIC:o=2Bn\	!	!	!	!	!	!LO:SIC:o=2dd\	!	!	!	!
4G\	.	.	.	.	.	.	2B)	.	.	.	.	.	2dd)	.	.	.	.
4GG/	4	.	.	.	.	.	.	.	.	.	.	.	.	.	.	.	.
.	3	.	.	.	.	.	.	.	.	.	.	.	.	.	.	.	.
!	!	!	!	!	!	!	!	!	!	!	!	!	!	!	!	!	!LO:TX:a:i:t=Solo:mod=
2C/	.	.	.	.	.	.	4c\	-ſis	-sis	.	.	.	4cc\	-ſis	-sis	.	4g/
.	.	.	.	.	.	.	4r	.	.	.	.	.	4r	.	.	.	4cc\
4BBn/	6	.	.	.	.	.	4r	.	.	.	.	.	4r	.	.	.	4dd\
=5	=5	=5	=5	=5	=5	=5	=5	=5	=5	=5	=5	=5	=5	=5	=5	=5	=5
!	!	!LO:N:vis=0	!LO:N:vis=0	!LO:N:vis=0	!	!	!LO:N:vis=0	!	!	!LO:N:vis=0	!	!	!LO:N:vis=0	!	!	!LO:N:vis=2	!
2.C/	.	0.r	0.r	0.r	.	.	0.r	.	.	0.r	.	.	0.r	.	.	2.r	4ee-\
.	.	.	.	.	.	.	.	.	.	.	.	.	.	.	.	.	4dd\
.	.	.	.	.	.	.	.	.	.	.	.	.	.	.	.	.	4cc\
2C/	.	.	.	.	.	.	.	.	.	.	.	.	.	.	.	4g/	4cc\
.	.	.	.	.	.	.	.	.	.	.	.	.	.	.	.	4cc\	4ee-\
4r	.	.	.	.	.	.	.	.	.	.	.	.	.	.	.	4dd\	4ff\
=6	=6	=6	=6	=6	=6	=6	=6	=6	=6	=6	=6	=6	=6	=6	=6	=6	=6
2.C/	.	.	.	.	.	.	.	.	.	.	.	.	.	.	.	4ee-\	4gg\
.	.	.	.	.	.	.	.	.	.	.	.	.	.	.	.	4dd\	4ff\
.	.	.	.	.	.	.	.	.	.	.	.	.	.	.	.	4cc\	4ee-\
2D/	.	.	.	.	.	.	.	.	.	.	.	.	.	.	.	4dd\	4ff\
.	.	.	.	.	.	.	.	.	.	.	.	.	.	.	.	4cc\	4ee-\
!	!	!	!	!	!	!	!	!	!	!	!	!	!	!	!	!LO:TX:a:t=P:problem:♮ above	!
4G\	.	.	.	.	.	.	.	.	.	.	.	.	.	.	.	4bn\	4dd\
=7	=7	=7	=7	=7	=7	=7	=7-	=7	=7	=7-	=7	=7	=7	=7	=7	=7	=7
!	!	!LO:N:vis=1	!LO:N:vis=1	!LO:N:vis=1	!	!	!LO:N:vis=1	!	!	!LO:N:vis=1	!	!	!LO:N:vis=1	!	!	!	!
2C/	.	1.r	1.r	1.r	.	.	1.r	.	.	1.r	.	.	1.r	.	.	4cc\	4ee-\
.	.	.	.	.	.	.	.	.	.	.	.	.	.	.	.	4g/	4dd\
4F\	.	.	.	.	.	.	.	.	.	.	.	.	.	.	.	4a-X/	4cc\
!	!	!	!	!	!	!	!	!	!	!	!	!	!	!	!	!LO:TX:a:t=P:problem:♮ above	!
8G\L	7	.	.	.	.	.	.	.	.	.	.	.	.	.	.	8bn\L	8dd\L
8F\J	.	.	.	.	.	.	.	.	.	.	.	.	.	.	.	8cc\J	8ee-\J
4G\	.	.	.	.	.	.	.	.	.	.	.	.	.	.	.	4.g/	4.dd\
4GG/	4	.	.	.	.	.	.	.	.	.	.	.	.	.	.	.	.
.	3	.	.	.	.	.	.	.	.	.	.	.	.	.	.	8f/	8cc\
=8	=8	=8	=8	=8	=8	=8	=8	=8	=8	=8	=8	=8	=8-	=8	=8	=8	=8
!LO:TX:b:i:t=Tutti Osana:mod=	!	!	!	!	!	!	!	!	!	!	!	!	!	!	!	!	!
4C/	.	4r	4r	4r	.	.	4r	.	.	4r	.	.	4r	.	.	4e-/	4cc\
4r	.	4r	4r	4r	.	.	4r	.	.	4r	.	.	4r	.	.	4r	4r
!LO:MO:null:mod=!LO&colon;TX&colon;a&colon;i&colon;t=Tutti	!	!	!	!	!	!	!	!	!	!	!	!	!	!	!	!	!
!null	!	!	!	!	!	!	!	!	!	!	!	!	!	!	!	!	!
4c\	.	4ee-\	4gg\	4c\	O-	O-	4c\	O-	O-	4g\	O-	O-	4ee-\	O-	O-	4cc\	4ee-\
4Bn\	6	4gg\	4dd\	4Bn\	-ſan-	-san-	4Bn\	-ſan-	-san-	4g\	-ſan-	-san-	4dd\	-san-	-san-	4g/	4dd\
!	!	!	!	!	!	!	!	!	!	!	!	!	!	!	!	!LO:TX:a:t=P:problem:♮ below	!
4G\	.	4dd\	4gg\	4G\	-na	-na	4d\	-na	-na	4g\	-na	-na	4dd\	-na	-na	4bn/	4dd\
*	*	*	*	*	*ij	*	*	*	*	*	*ij	*	*	*ij	*	*	*
4B\	6	4gg\	4dd\	4B\	O-	o-	4B\	O-	o-	4g\	O-	o-	4dd\	O-	o-	4g/	4dd\
!LO:LB:g=original	!	!	!	!	!	!	!LO:LB:g=original	!	!	!	!	!	!	!	!	!	!
=9	=9	=9	=9	=9	=9	=9	=9	=9	=9	=9	=9	=9	=9	=9	=9	=9	=9
4c\	.	4cc\	4ee-\	4c\	-ſan-	-san-	4c\	-ſan-	-san-	4g\	-ſan-	-san-	4ee-\	-san-	-san-	4cc\	4ee-\
!	!	!	!	!	!	!	!	!	!	!	!	!	!	!	!	!LO:TX:a:t=P:problem:♮ above	!
4C/	.	4cc\	4ee-\	4c\	-na	-na	4e-\	-na	-na	4g\	-na	-na	4ee-\	-na	-na	4bn\	4ee-\
*	*	*	*	*	*Xij	*	*	*	*	*	*Xij	*	*	*Xij	*	*	*
4G\	.	4dd\	4gg\	4Bn\	In	in	4d\	in	in	4g\	in	in	4dd\	in	in	4a\	4dd\
!	!	!	!LO:LB:g=original	!	!	!	!	!	!	!	!	!	!LO:LB:g=original	!	!	!	!
4c\	.	4ee-\	4gg\	4c\	ex-	ex-	4c\	ex-	ex-	4g\	ex-	ex-	4ee-\	ex-	ex-	4cc\	4ee-\
2A-X\	7	2cc\	2ff#X\	2A-X\	-cel-	-cel-	2c\	-cel-	-cel-	2f#X\	-cel-	-cel-	2cc\	-cel-	-cel-	2a-X/	4dd\
.	6	.	.	.	.	.	.	.	.	.	.	.	.	.	.	.	4cc\
=10	=10	=10	=10	=10	=10	=10	=10	=10	=10	=10	=10	=10	=10	=10	=10	=10	=10
!	!	!LO:TX:a:t=P:problem:♮ above	!	!	!	!	!	!	!	!	!	!	!LO:TX:a:t=P:problem:♮ above	!	!	!	!
4G\	.	4bn\	4gg\	4G\	-ſis	-sis	4d\	-sis	-sis	4g\	-ſis	-sis	4bn\	-sis	-sis	4g/	4bn\
4r	.	4r	4r	4r	.	.	4r	.	.	4r	.	.	4r	.	.	4r	4r
!	!	!	!	!	!	!	!LO:TX:a:t=P:problem:♮ above	!	!	!	!	!	!	!	!	!LO:TX:a:t=P:problem:♮ above	!
4G\	.	4b\	4dd\	4G\	O-	O-	4Bn\	o-	O-	4g\	O-	O-	4dd\	o-	O-	4bn\	4dd\
!	!	!	!	!LO:SIC:o=4c\	!	!	!	!	!	!	!	!	!	!	!	!	!
4c\	.	2ee-\	2gg\	(4c	-sa-	-san-	2c\	-san-	-san-	2g\	-ſan-	-san-	2ee-\	-san-	-san-	2.ccM\	2.ee-M\
!	!	!	!	!LO:SIC:o=4G\	!	!	!	!	!	!	!	!	!	!	!	!	!
4G\	.	.	.	4G)	-na	.	.	.	.	.	.	.	.	.	.	.	.
!	!	!	!	!LO:SIC:o=(4A-X\	!	!	!	!	!	!	!	!	!	!	!	!	!
4A-X\	.	4ee-\	4aa-X\	4A-	in	-na	4c\	-na	-na	4a-X\	-na	-na	4ee-\	-na	-na	.	.
!	!	!LO:LB:g=original	!	!	!	!	!	!	!	!	!	!	!	!	!	!LO:LB:g=original	!LO:LB:g=original
=11	=11	=11	=11	=11	=11	=11	=11	=11	=11	=11	=11	=11	=11	=11	=11	=11	=11
!	!	!	!	!LO:SIC:o=4B-\)	!	!	!	!	!	!	!	!	!	!	!	!LO:SIC:o=2.b-/	!
4B-\	.	2dd\	2ff\	(4B-	.	in	2B-X\	in	in	2f\	in	in	2dd\	in	in	2.b-M	2.ddm\
!	!	!	!	!LO:SIC:o=4F\	!	!	!	!	!	!	!	!	!	!	!	!	!
4F\	.	.	.	4F)	ex-	.	.	.	.	.	.	.	.	.	.	.	.
!	!	!	!	!LO:SIC:o=(4G\	!	!	!	!	!	!	!	!	!	!	!	!	!
4G\	.	4dd\	4gg\	4G	.	ex-	4B-\	ex-	ex-	4g\	ex-	ex-	4dd\	ex-	ex-	.	.
!	!	!	!	!LO:SIC:o=4A-X\)	!	!	!	!	!	!	!	!	!	!	!	!LO:SIC:o=2.a-X/	!
4A-X\	.	2cc\	2ee-\	(4A-	.	-cel-	2.A-X\	-cel-	-cel-	(2e-\	-cel-	-cel-	2.ccM\	-cel-	-cel-	2.a-M	2.ccM\
4E-\	.	.	.	4E-\	-ce-	.	.	.	.	.	.	.	.	.	.	.	.
!	!	!	!	!LO:SIC:o=(4F\	!	!	!	!	!	!	!	!	!	!	!	!	!
4F\	.	4cc\	4ff\	4F)	.	.	.	.	.	4f\)	.	.	.	.	.	.	.
=12	=12	=12	=12	=12	=12	=12	=12	=12	=12	=12	=12	=12	=12	=12	=12	=12	=12
!	!	!LO:SIC:v:o=2b-\	!LO:MO:mod=2gg	!LO:SIC:o=8G\L)	!	!	!LO:TX:a:t=P:problem:♮ above	!	!	!	!	!	!	!	!	!	!
8G\L	7	2bn\	2.gg\	(8GL	.	.	(8Bn\L	.	.	2.g\	.	.	(8dd\L	.	.	8g/L	8dd\L
!	!	!	!	!LO:SIC:o=(8F\J	!	!	!	!	!	!	!	!	!	!	!	!	!
8F\J	.	.	.	8FJ)	.	.	8c\J)	.	.	.	.	.	8ee-\J)	.	.	8a-X/J	8ee-\J
!	!	!	!	!LO:SIC:o=2G\)	!	!	!	!	!	!	!	!	!	!	!	!	!
4G\	.	.	.	2G	.	.	2Bn\	.	.	.	.	.	2dd\	.	.	4.g/	4.dd\
!	!	!LO:SIC:v:o=4b-\	!LO:MO:null:mod=4gg	!	!	!	!	!	!	!	!	!	!	!	!	!	!
4GG/	4	4b\	.	.	.	.	.	.	.	.	.	.	.	.	.	.	.
.	3	.	.	.	.	.	.	.	.	.	.	.	.	.	.	8f/	8cc\
2C/	.	4cc\	4gg\	4C/	-lsis	-sis	4c\	-ſis	-sis	4g\	-ſis	-sis	4cc\	-ſis	-sis	4e-/	4cc\
.	.	4r	4r	4r	.	.	4r	.	.	4r	.	.	4r	.	.	4r	4r
!LO:MO:mod=!LO&colon;TX&colon;a&colon;i&colon;t=Solo	!	!	!	!	!	!	!	!	!	!	!	!	!	!	!	!	!
!LO:TX:b:t=Solo	!	!	!	!	!	!	!	!	!	!	!	!	!	!	!	!	!
4G\	.	4r	4r	4r	.	.	4Bn\	O-	O-	4r	.	.	4dd\	O-	O-	4r	4r
!	!	!	!	!	!	!	!	!	!	!LO:LB:g=original	!	!	!	!	!	!	!
=13	=13	=13	=13	=13	=13	=13	=13	=13	=13	=13	=13	=13	=13	=13	=13	=13	=13
!	!	!	!LO:TX:a:t=4:mod=	!LO:TX:a:t=10:mod=	!	!	!	!	!	!LO:TX:a:t=4:mod=	!	!	!	!	!	!	!
!	!	!LO:N:vis=00	!LO:N:vis=00	!LO:N:vis=00	!	!	!	!	!	!LO:N:vis=00	!	!	!	!	!	!	!
2c\	.	00.r	00.r	00.r	.	.	4c\	-ſan-	-san-	00.r	.	.	4ee-\	-san-	-san-	4r	4r
!	!	!	!	!	!	!	!LO:SIC:o=8d\L	!	!	!	!	!	!LO:SIC:o=8ff\L	!	!	!	!
.	.	.	.	.	.	.	(8dL	.	.	.	.	.	(8ffL	.	.	4r	4r
!	!	!	!	!	!	!	!LO:SIC:o=8c\J	!	!	!	!	!	!LO:SIC:o=8ee-\J	!	!	!	!
.	.	.	.	.	.	.	8cJ)	.	.	.	.	.	8ee-J)	.	.	.	.
!	!	!	!	!	!	!	!	!	!	!	!	!	!	!	!	!LO:TX:a:t=P:problem:♮ above	!
4G\	.	.	.	.	.	.	4Bn\	-na	-na	.	.	.	4dd\	-na	-na	4bn\	4dd\
2C/	.	.	.	.	.	.	4r	.	.	.	.	.	4r	.	.	4cc\	4ee-\
.	.	.	.	.	.	.	4r	.	.	.	.	.	4r	.	.	8dd\L	8ff\L
.	.	.	.	.	.	.	.	.	.	.	.	.	.	.	.	8cc\J	8ee-\J
!	!	!	!	!	!	!	!	!	!	!	!	!	!	!	!	!LO:TX:a:t=P:problem:♮ above	!
*	*	*	*	*	*	*	*	*ij	*	*	*	*	*	*ij	*	*	*
4GG/	.	.	.	.	.	.	4Bn\	O-	O-	.	.	.	4dd\	O-	O-	4bn\	4dd\
=14	=14	=14	=14	=14	=14	=14	=14	=14	=14	=14	=14	=14	=14	=14	=14	=14	=14
2C/	.	.	.	.	.	.	4c\	-ſan-	-san-	.	.	.	4ee-\	-san-	-san-	4r	4r
!	!	!	!	!	!	!	!	!	!	!	!	!	!LO:SIC:o=8ff\L	!	!	!	!
.	.	.	.	.	.	.	(8d\L	.	.	.	.	.	(8ffL	.	.	4r	4r
!	!	!	!	!	!	!	!	!	!	!	!	!	!LO:SIC:o=8ee-\J	!	!	!	!
.	.	.	.	.	.	.	8c\J)	.	.	.	.	.	8ee-J)	.	.	.	.
!	!	!	!	!	!	!	!	!	!	!	!	!	!	!	!	!LO:TX:a:t=P:problem:♮ above	!
4G\	.	.	.	.	.	.	4Bn\	-na	-na	.	.	.	4dd\	-na	-na	4bn\	4dd\
*	*	*	*	*	*	*	*	*Xij	*	*	*	*	*	*Xij	*	*	*
2c\	.	.	.	.	.	.	4r	.	.	.	.	.	4r	.	.	4cc\	4ee-\
.	.	.	.	.	.	.	4r	.	.	.	.	.	4r	.	.	8dd\L	8ff\L
.	.	.	.	.	.	.	.	.	.	.	.	.	.	.	.	8cc\J	8ee-\J
!	!	!	!	!	!	!	!LO:LB:g=original	!	!	!	!	!	!	!	!	!	!
!	!	!	!	!	!	!	!LO:TX:a:t=P:problem:♮ above	!	!	!	!	!	!	!	!	!LO:TX:a:t=P:problem:♮ above	!
4G\	.	.	.	.	.	.	4Bn\	O-	O-	.	.	.	4dd\	o-	O-	4bn\	4dd\
=15	=15	=15	=15	=15	=15	=15	=15	=15	=15	=15	=15	=15	=15	=15	=15	=15	=15
!	!	!	!	!	!	!	!	!	!	!	!	!	!	!	!	!LO:N:vis=2	!LO:N:vis=2
4C/	.	.	.	.	.	.	4c\	-ſan-	-san-	.	.	.	4ee-\	-san-	-san-	2.r	2.r
4D/	.	.	.	.	.	.	4d\	-na	-na	.	.	.	4ff\	-na	-na	.	.
4E-/	.	.	.	.	.	.	4e-\	in	in	.	.	.	4gg\	in	in	.	.
!	!	!	!	!	!	!	!LO:SIC:o=8d\L	!	!	!	!	!	!	!	!	!	!
4F\	6	.	.	.	.	.	(8dL	ex-	ex-	.	.	.	(8ff\L	ex-	ex-	4r	4r
!	!	!	!	!	!	!	!LO:SIC:o=(8c\J	!	!	!	!	!	!	!	!	!	!
.	5	.	.	.	.	.	8cJ)	.	.	.	.	.	8ee-\J)	.	.	.	.
!	!	!	!	!	!	!	!LO:SIC:o=2Bn\)	!	!	!	!	!	!	!	!	!	!
4G\	.	.	.	.	.	.	2B	-cel-	-cel-	.	.	.	2dd\	-cel-	-cel-	4r	4r
!	!	!	!	!	!	!	!	!	!	!	!	!	!	!	!	!LO:TX:a:t=P:problem:♮ above	!
4GG/	.	.	.	.	.	.	.	.	.	.	.	.	.	.	.	4bn\	4dd\
=16	=16	=16	=16	=16	=16	=16	=16	=16	=16	=16	=16	=16	=16	=16	=16	=16	=16
4C/	.	.	.	.	.	.	4c\	-sis	-sis	.	.	.	4cc\	-sis	-sis	4cc\	4ee-\
4D/	.	.	.	.	.	.	4r	.	.	.	.	.	4r	.	.	4dd\	4ff\
4E-/	.	.	.	.	.	.	4r	.	.	.	.	.	4r	.	.	4ee-\	4gg\
!	!	!	!	!	!	!	!LO:N:vis=2	!	!	!	!	!	!LO:N:vis=2	!	!	!	!
4F\	.	.	.	.	.	.	2.r	.	.	.	.	.	2.r	.	.	8dd\L	8ff\L
.	.	.	.	.	.	.	.	.	.	.	.	.	.	.	.	8cc\J	8ee-\J
4G\	.	.	.	.	.	.	.	.	.	.	.	.	.	.	.	4.g/	4.dd\
4GG/	.	.	.	.	.	.	.	.	.	.	.	.	.	.	.	.	.
.	.	.	.	.	.	.	.	.	.	.	.	.	.	.	.	8f/	8cc\
!LO:LB:g=original	!	!	!	!	!	!	!	!	!	!	!	!	!	!	!	!	!
=17	=17	=17-	=17	=17	=17	=17	=17	=17	=17	=17	=17	=17	=17	=17	=17	=17	=17
!	!	!LO:N:vis=2	!LO:N:vis=2	!LO:N:vis=00	!	!	!LO:N:vis=00	!	!	!	!	!	!	!	!	!	!
2C/	.	2.r	2.r	00.r	.	.	00.r	.	.	4r	.	.	4r	.	.	4e-/	4cc\
.	.	.	.	.	.	.	.	.	.	4r	.	.	4r	.	.	4r	4r
4D/	#	.	.	.	.	.	.	.	.	4f#X\	O-	O-	4a\	o-	O-	4r	4r
!	!	!	!	!	!	!	!	!	!	!	!	!	!	!	!	!LO:LB:g=original	!
!	!	!	!	!	!	!	!	!	!	!	!	!	!	!	!	!LO:N:vis=2	!LO:N:vis=2
2GG/	.	4r	4r	.	.	.	.	.	.	4g\	-ſan-	-san-	4b-\	-san-	-san-	2.r	2.r
.	.	4r	4r	.	.	.	.	.	.	(8a\L	.	.	(8cc\L	.	.	.	.
.	.	.	.	.	.	.	.	.	.	8g\J)	.	.	8b-\J)	.	.	.	.
!	!	!LO:TX:a:t=P:problem:# above	!	!	!	!	!	!	!	!	!	!	!	!	!	!	!
4D/	#	4ff#X\	4aa\	.	.	.	.	.	.	4f#\	-na	-na	4a\	-na	-na	.	.
!	!	!	!	!	!	!	!	!	!	!	!	!	!LO:LB:g=original	!	!	!	!
=18	=18	=18	=18	=18	=18	=18	=18	=18	=18	=18	=18	=18	=18	=18	=18	=18	=18-
!	!	!	!	!	!	!	!	!	!	!	!	!	!	!	!	!LO:N:vis=00	!LO:N:vis=00
2G\	.	4gg\	4bb-\	.	.	.	.	.	.	4r	.	.	4r	.	.	00.r	00.r
.	.	8aa\L	8ccc\L	.	.	.	.	.	.	4r	.	.	4r	.	.	.	.
.	.	8gg\J	8bb-\J	.	.	.	.	.	.	.	.	.	.	.	.	.	.
*	*	*	*	*	*	*	*	*	*	*	*ij	*	*	*ij	*	*	*
4D\	#	4ff#X\	4aa\	.	.	.	.	.	.	4f#X\	O-	O-	4a\	o-	O-	.	.
2GG/	.	4r	4r	.	.	.	.	.	.	4g\	-ſan-	-san-	4b-\	-san-	-san-	.	.
.	.	4r	4r	.	.	.	.	.	.	(8a\L	.	.	(8cc\L	.	.	.	.
.	.	.	.	.	.	.	.	.	.	8g\J)	.	.	8b-\J)	.	.	.	.
4D\	#	4ff#X\	4aa\	.	.	.	.	.	.	4f#\	-na	-na	4a\	-na	-na	.	.
*	*	*	*	*	*	*	*	*	*	*	*Xij	*	*	*Xij	*	*	*
=19	=19	=19	=19	=19	=19	=19	=19	=19	=19	=19	=19	=19	=19	=19	=19	=19	=19
2G\	.	4gg\	4bb-\	.	.	.	.	.	.	4r	.	.	4r	.	.	.	.
.	.	8aa\L	8ccc\L	.	.	.	.	.	.	4r	.	.	4r	.	.	.	.
.	.	8gg\J	8bb-\J	.	.	.	.	.	.	.	.	.	.	.	.	.	.
4D\	#	4ff#X\	4aa\	.	.	.	.	.	.	4f#X\	o-	O-	4a\	o-	O-	.	.
!	!	!LO:N:vis=2	!LO:N:vis=2	!	!	!	!	!	!	!	!	!	!	!	!	!	!
4GG/	.	2.r	2.r	.	.	.	.	.	.	4g\	-ſan-	-san-	4b-\	-san-	-san-	.	.
4AA/	.	.	.	.	.	.	.	.	.	4a\	-na	-na	4cc\	-na	-na	.	.
4BB-/	.	.	.	.	.	.	.	.	.	4b-\	in	in	4dd\	in	in	.	.
=20	=20	=20	=20	=20	=20	=20	=20	=20	=20	=20	=20	=20	=20	=20	=20	=20	=20
!	!	!LO:N:vis=2	!LO:N:vis=2	!	!	!	!	!	!	!	!	!	!	!	!	!	!
4C/	.	2.r	2.r	.	.	.	.	.	.	4g\	ex-	ex-	4ee-\	ex-	ex-	.	.
4D/	.	.	.	.	.	.	.	.	.	2f#X\	-cel-	-cel-	2a/	-cel-	-cel-	.	.
4DD/	.	.	.	.	.	.	.	.	.	.	.	.	.	.	.	.	.
4GG/	.	4r	4r	.	.	.	.	.	.	4g\	-sis	-sis	4g/	-sis	-sis	.	.
4G\	.	4gg\	4bb-\	.	.	.	.	.	.	4r	.	.	4r	.	.	.	.
4G\	.	4gg\	4bb-\	.	.	.	.	.	.	4r	.	.	4r	.	.	.	.
=21	=21	=21	=21	=21	=21	=21	=21	=21	=21	=21	=21	=21	=21	=21	=21	=21	=21
!	!	!	!	!LO:N:vis=0	!	!	!LO:N:vis=1	!	!	!LO:N:vis=1	!	!	!LO:N:vis=2	!	!	!	!
8D/L	.	8dd\L	8aa\L	0.r	.	.	1.r	.	.	1.r	.	.	2.r	.	.	.	.
8C/J	.	8ee-\J	8gg\J	.	.	.	.	.	.	.	.	.	.	.	.	.	.
4D/	.	4.a/	4.ff#X\	.	.	.	.	.	.	.	.	.	.	.	.	.	.
4DD/	.	.	.	.	.	.	.	.	.	.	.	.	.	.	.	.	.
.	.	8a/	8ff#\	.	.	.	.	.	.	.	.	.	.	.	.	.	.
4GG/	.	4b-\	4gg\	.	.	.	.	.	.	.	.	.	4r	.	.	.	.
*clefC1	*	*	*	*	*	*	*	*	*	*	*	*	*	*	*	*	*
*mclefG2	*	*	*	*	*	*	*	*	*	*	*	*	*	*	*	*	*
*k[b-e-]	*	*	*	*	*	*	*	*	*	*	*	*	*	*	*	*	*
!LO:TX:b:i:t=Fuga	!	!	!	!	!	!	!	!	!	!	!	!	!	!	!	!	!
8g/L	.	4r	4r	.	.	.	.	.	.	.	.	.	8g/L	O-	O-	.	.
8a/	.	.	.	.	.	.	.	.	.	.	.	.	8a/	.	.	.	.
8b-/	.	4r	4r	.	.	.	.	.	.	.	.	.	8b-/	.	.	.	.
8g/J	.	.	.	.	.	.	.	.	.	.	.	.	8g/J	.	.	.	.
!	!	!	!LO:LB:g=original	!	!	!	!	!	!	!	!	!	!	!	!	!	!
=22	=22	=22	=22	=22	=22	=22	=22	=22	=22	=22-	=22	=22	=22	=22	=22	=22	=22
*^	*	*	*	*	*	*	*	*	*	*	*	*	*	*	*	*	*
!	!	!	!	!LO:TX:a:t=1	!	!	!	!	!	!	!	!	!	!	!	!	!	!
!	!	!	!LO:N:vis=1	!LO:N:vis=1	!	!	!	!LO:N:vis=2	!	!	!	!	!	!	!	!	!LO:N:vis=00	!LO:N:vis=00
4dd/	4ryy	.	1.r	1.r	.	.	.	2.r	.	.	4r	.	.	4dd\	-ſan-	-san-	00.r	00.r
4dd/	8d\L	.	.	.	.	.	.	.	.	.	8d\L	O-	O-	4dd\	-na	-na	.	.
!	!	!	!	!	!	!	!	!	!	!	!LO:TX:a:t=P:problem:♮ above	!	!	!	!	!	!	!
.	8en\	.	.	.	.	.	.	.	.	.	8en\	.	.	.	.	.	.	.
4dd/	8f#X\	.	.	.	.	.	.	.	.	.	8f#X\	.	.	4dd\	O-	o-	.	.
.	8d\J	.	.	.	.	.	.	.	.	.	8d\J	.	.	.	.	.	.	.
4b-/	4g\	.	.	.	.	.	.	4r	.	.	4g\	-ſan-	-san-	8b-\L	-ſan-	-san-	.	.
.	.	.	.	.	.	.	.	.	.	.	.	.	.	8a\	.	.	.	.
*clefC4	*	*	*	*	*	*	*	*	*	*	*	*	*	*	*	*	*	*
*mclefF4	*	*	*	*	*	*	*	*	*	*	*	*	*	*	*	*	*	*
*k[b-e-]	*	*	*	*	*	*	*	*	*	*	*	*	*	*	*	*	*	*
8G/L	4ryyyy	.	.	.	.	.	.	8G/L	O-	O-	4g\	-na	-na	8b-\	.	.	.	.
8A/	.	.	.	.	.	.	.	8A/	.	.	.	.	.	8cc\	.	.	.	.
8B-/	4ryyyy	.	.	.	.	.	.	8B-/	.	.	4g\	O-	o-	8b-\	.	.	.	.
8G/J	.	.	.	.	.	.	.	8G/J	.	.	.	.	.	8cc\J	.	.	.	.
*v	*v	*	*	*	*	*	*	*	*	*	*	*	*	*	*	*	*	*
!LO:LB:g=original	!	!LO:LB:g=original	!	!LO:LB:g=original	!	!	!	!	!	!	!	!	!	!	!	!	!
=23	=23	=23	=23	=23	=23	=23	=23	=23	=23	=23	=23	=23	=23	=23	=23	=23	=23
4d\	.	4r	4r	4r	.	.	4d\	-ſan-	-san-	8f#X\L	-ſan-	-san-	4a\	.	.	.	.
!	!	!	!	!	!	!	!	!	!	!LO:TX:t=P:problem:♯ above	!	!	!	!	!	!	!
!	!	!	!	!	!	!	!	!	!	!LO:SIC:v:o=8e#\	!	!	!	!	!	!	!
.	.	.	.	.	.	.	.	.	.	8en	.	.	.	.	.	.	.
!!LO:MO:ori
*clefF4	*	*	*	*	*	*	*	*	*	*	*	*	*	*	*	*	*
*k[b-e-]	*	*	*	*	*	*	*	*	*	*	*	*	*	*	*	*	*
!!LO:MO:end
!	!	!	!	!	!	!	!	!	!	!LO:TX:a:t=P:problem:♯ above	!	!	!	!	!	!	!
8D/L	.	4a/	8ff#X\L	8D\L	O-	O-	4d\	-na	-na	8f#\	.	.	4a\	-na	-na	.	.
!	!	!	!	!LO:TX:a:t=P:problem:♮ above	!	!	!	!	!	!	!	!	!	!	!	!	!
8En/	.	.	8gg\	8En\	.	.	.	.	.	8g\	.	.	.	.	.	.	.
!	!	!	!	!LO:TX:a:t=P:problem:♯ above	!	!	!	!	!	!	!	!	!	!	!	!	!
8F#X/	.	4a/	8aa\	8F#\	.	.	4d\	o-	o-	8a\	.	.	4a\	o-	o-	.	.
!	!	!	!	!	!	!	!	!	!	!LO:TX:a:t=P:problem:♯ above	!	!	!	!	!	!	!
8D/J	.	.	8ff#\J	8D\J	.	.	.	.	.	8f#\J	.	.	.	.	.	.	.
!	!	!	!	!	!	!	!	!	!	!LO:LB:g=original	!	!	!	!	!	!	!
4G\	.	4dd\	4bb-\	4G\	-sa-	-san-	8B-\L	-san-	-san-	4g\	.	.	4b-\	-sa(n)-	-san-	.	.
.	.	.	.	.	.	.	8A\	.	.	.	.	.	.	.	.	.	.
4G\	.	4dd\	4bb-\	4G\	-na	-na	8B-\	.	.	4g\	-na	-na	4b-\	-na	-na	.	.
.	.	.	.	.	.	.	8c\J	.	.	.	.	.	.	.	.	.	.
*	*	*	*	*	*ij	*	*	*	*	*	*	*	*	*ij	*	*	*
4F#X\	6	4dd\	4aa\	4F#X\	O-	o-	4A\	.	.	4d\	O-	o-	4a\	o-	o-	.	.
=24	=24	=24	=24	=24	=24	=24	=24	=24	=24	=24	=24	=24	=24	=24	=24	=24	=24
4G\	.	4gg\	4bb-\	4G\	-ſa-	-san-	4B-\	.	.	4g\	-ſan-	-san-	4b-\	-sa(n)-	-san-	.	.
4G\	.	4dd\	4bb-\	4G\	-na	-na	4B-\	-na	-na	4g\	-na	-na	4dd\	-na	-na	.	.
*	*	*	*	*	*Xij	*	*	*	*	*	*	*	*	*Xij	*	*	*
4BB-/	.	4dd\	4bb-\	4BB-/	in	in	4B-\	in	in	4b-\	in	in	4dd\	in	in	.	.
4C/	.	4ee-\	4gg\	4C/	ex-	ex-	4c\	ex-	ex-	4g\	ex-	ex-	4ee-\	ex-	ex-	.	.
4D/	.	4dd\	4.ff#X\	2D/	-cael-	-cel-	2d\	-cel-	-cel-	2f#X\	-cel-	-cel-	2a\	-cel-	-cel-	.	.
4DD/	.	4a/	.	.	.	.	.	.	.	.	.	.	.	.	.	.	.
.	.	.	8ff#\	.	.	.	.	.	.	.	.	.	.	.	.	.	.
=25	=25	=25	=25	=25	=25	=25	=25	=25	=25	=25	=25	=25	=25	=25	=25	=25	=25
*^	*	*	*	*	*	*	*	*	*	*	*	*	*	*	*	*	*
*	*^	*	*	*	*	*	*	*	*	*	*	*	*	*	*	*	*	*
4GG/	2.ryyyy	2.ryyyy	.	4b-/	4gg\	4GG/	-sis	-sis	4d\	-sis	-sis	4g\	-sis	-sis	4g/	-sis	-sis	.	.
*clefC1	*	*	*	*	*	*	*	*	*	*	*	*	*	*	*	*	*	*	*
*mclefG2	*	*	*	*	*	*	*	*	*	*	*	*	*	*	*	*	*	*	*
*k[b-e-]	*	*	*	*	*	*	*	*	*	*	*	*	*	*	*	*	*	*	*
8cc\L	.	.	.	4r	4r	4r	.	.	4r	.	.	4r	.	.	8cc\L	o-	O-	.	.
8dd\	.	.	.	.	.	.	.	.	.	.	.	.	.	.	8dd\	.	.	.	.
8ee-\	.	.	.	4r	4r	4r	.	.	4r	.	.	4r	.	.	8ee-\	.	.	.	.
8cc\J	.	.	.	.	.	.	.	.	.	.	.	.	.	.	8cc\J	.	.	.	.
!	!	!LO:MO:Lmod=4ryy	!	!LO:N:vis=2	!LO:N:vis=2	!LO:N:vis=2	!	!	!LO:N:vis=2	!	!	!	!	!	!	!	!	!	!
4gg/	4r	4gg\	.	2.r	2.r	2.r	.	.	2.r	.	.	4r	.	.	4gg\	-san-	-san-	.	.
4gg/	8g\L	4ryyyy	.	.	.	.	.	.	.	.	.	8g\L	O-	O-	4gg\	-na	-na	.	.
.	8a\	.	.	.	.	.	.	.	.	.	.	8a\	.	.	.	.	.	.	.
4gg/	8bn\	4ryyyy	.	.	.	.	.	.	.	.	.	8bn\	.	.	4gg\	o-	o-	.	.
.	8g\J	.	.	.	.	.	.	.	.	.	.	8g\J	.	.	.	.	.	.	.
*	*v	*v	*	*	*	*	*	*	*	*	*	*	*	*	*	*	*	*	*
!	!	!	!	!	!	!	!	!	!	!	!	!	!	!LO:LB:g=original	!	!	!	!LO:LB:g=original
=26	=26	=26	=26	=26	=26	=26	=26	=26	=26	=26	=26	=26	=26	=26	=26	=26	=26-	=26
!	!	!	!LO:N:vis=2	!LO:N:vis=2	!LO:N:vis=2	!	!	!	!	!	!	!	!	!	!	!	!LO:N:vis=2	!LO:N:vis=2
4ee-/	4cc\	.	2.r	2.r	2.r	.	.	4r	.	.	4cc\	-ſan-	-san-	8ee-\L	-ſan-	-san-	2.r	2.r
.	.	.	.	.	.	.	.	.	.	.	.	.	.	8dd\	.	.	.	.
!!LO:MO:ori
*clefC4	*	*	*	*	*	*	*	*	*	*	*	*	*	*	*	*	*	*
*k[b-e-]	*	*	*	*	*	*	*	*	*	*	*	*	*	*	*	*	*	*
!!LO:MO:end
!	!	!	!	!	!	!	!	!LO:LB:g=original	!	!	!	!	!	!	!	!	!	!
8c\L	4ryyyy	.	.	.	.	.	.	8c\L	O-	O-	4cc\	-na	-na	8ee-\	.	.	.	.
8d\	.	.	.	.	.	.	.	8d\	.	.	.	.	.	8ff\	.	.	.	.
*	*	*	*	*	*	*	*	*	*	*	*	*ij	*	*	*	*	*	*
8e-\	4ryyyy	.	.	.	.	.	.	8e-\	.	.	4cc\	O-	o-	8ee-\	.	.	.	.
8c\J	.	.	.	.	.	.	.	8c\J	.	.	.	.	.	8ff\J	.	.	.	.
4g\	2.ryyyy	.	4r	4r	4r	.	.	4g\	-ſan-	-san-	8bn\L	-ſan-	-san-	4dd\	.	.	4r	4r
.	.	.	.	.	.	.	.	.	.	.	8a\	.	.	.	.	.	.	.
*clefF4	*	*	*	*	*	*	*	*	*	*	*	*	*	*	*	*	*	*
*k[b-e-]	*	*	*	*	*	*	*	*	*	*	*	*	*	*	*	*	*	*
!	!	!	!LO:TX:a:t=P:problem:♮ above	!	!	!	!	!	!	!	!	!	!	!	!	!	!LO:TX:a:t=P:problem:♮ above	!
8G\L	.	.	4bn\	4dd\	8G\L	O-	O-	4g\	-na	-na	8g\	.	.	4dd\	-na	-na	4bn\	4dd\
8A\	.	.	.	.	8A\	.	.	.	.	.	8a\	.	.	.	.	.	.	.
*	*	*	*	*	*	*	*	*	*ij	*	*	*	*	*	*	*	*	*
8Bn\	.	.	4b\	4dd\	8Bn\	.	.	4g\	O-	o-	8b\	.	.	4dd\	O-	o-	4b\	4dd\
8G\J	.	.	.	.	8G\J	.	.	.	.	.	8g\J	.	.	.	.	.	.	.
*v	*v	*	*	*	*	*	*	*	*	*	*	*	*	*	*	*	*	*
!LO:LB:g=original	!	!	!	!	!	!	!	!	!	!	!	!	!	!	!	!	!
=27	=27	=27	=27	=27	=27	=27	=27	=27	=27	=27	=27	=27	=27	=27	=27	=27	=27
4c\	.	4ee-\	4gg\	4c\	-san-	-san-	8e-\L	-ſan-	-san-	4cc\	.	.	4ee-\	-san-	-san-	4g/	4ee-\
.	.	.	.	.	.	.	8d\	.	.	.	.	.	.	.	.	.	.
4c\	.	4ee-\	4gg\	4c\	-na	-na	8e-\	.	.	4g\	-na	-na	4ee-\	-na	-na	4g/	4ee-\
.	.	.	.	.	.	.	8f\J	.	.	.	.	.	.	.	.	.	.
*	*	*	*	*	*ij	*	*	*	*	*	*Xij	*Xij	*	*ij	*	*	*
4Bn\	6	4dd\	4gg\	4Bn\	O-	o-	4d\	.	.	4g\	O-	o-	4dd\	O-	o-	4g/	4dd\
2c\	.	4ee-\	4gg\	4c\	-san-	-san-	4c\	.	.	4g\	-ſan-	-san-	4ee-\	-san-	-san-	4cc\	4ee-\
.	.	4ee-\	4gg\	4c\	-na	-na	4c\	-na	-na	4g\	-na	-na	4ee-\	-na	-na	4cc\	4ee-\
*	*	*	*	*	*Xij	*	*	*Xij	*Xij	*	*	*	*	*Xij	*	*	*
4E-\	6	4ee-\	4gg\	4E-\	in	in	4c\	in	in	4g\	in	in	4ee-\	in	in	4ee-\	4gg\
=28	=28	=28	=28	=28	=28	=28	=28	=28	=28	=28	=28	=28	=28	=28	=28	=28	=28
!	!	!	!	!	!	!	!	!	!	!LO:TX:t=P:problem=bemol ges na 5. linii, ale dotyczący tego dźwieku	!	!	!	!	!	!	!
4F\	.	4cc\	4aa-X\	4F\	ex-	ex-	4f\	ex-	ex-	4a-X\	ex-	ex-	4cc\	ex-	ex-	4cc\	4aa-X\
!	!	!	!	!	!	!	!	!	!	!	!	!	!LO:TX:a:t=P:problem:♮ above	!	!	!	!
4G\	.	4bn\	4gg\	2G\	-sael-	-cel-	2d\	-cel-	-cel-	2g\	-cel-	-cel-	2bny\	-cel-	-cel-	4.g/	4.dd\
4GG/	4	4b\	4gg\	.	.	.	.	.	.	.	.	.	.	.	.	.	.
.	3	.	.	.	.	.	.	.	.	.	.	.	.	.	.	8f/	8cc\
4C/	.	4cc\	4gg\	4C/	-sis	-sis	4e-\	-ſis	-sis	4g\	-sis	-sis	4cc\	-sis	-sis	4e-/	4cc\
4r	.	4r	4r	4r	.	.	4r	.	.	4r	.	.	4r	.	.	4r	4r
4c\	.	4ee-\	4gg\	4c\	O-	O-	4c\	O-	O-	4g\	o-	O-	4ee-\	o-	O-	4g/	4ee-\
=29	=29	=29	=29	=29	=29	=29	=29	=29	=29	=29	=29	=29	=29	=29	=29	=29	=29
4Bn\	6	4dd\	4gg\	4Bn\	-ſan-	-san-	4Bn\	-ſan-	-san-	4g\	-san-	-san-	4dd\	-san-	-san-	4g/	4dd\
!	!	!LO:SIC:v:o=4b-\	!	!	!	!	!	!	!	!	!	!	!	!	!	!	!
4G\	.	4bn\	4dd\	4G\	-na	-na	4d\	-na	-na	4g\	-na	-na	4dd\	-na	-na	4g/	4dd\
*	*	*	*	*	*ij	*	*	*ij	*	*	*ij	*	*	*ij	*	*	*
!	!	!	!	!	!	!	!	!	!	!LO:LB:g=original	!	!	!	!	!	!	!
4B\	6	4dd\	4gg\	4B\	O-	o-	4Bn\	O-	o-	4g\	o-	o-	4dd\	o-	o-	4g/	4dd\
!	!	!	!	!LO:LB:g=original	!	!	!	!	!	!	!	!	!	!	!	!	!
4c\	.	4ee-\	4gg\	4c\	-ſan-	-san-	4c\	-ſan-	-san-	4g\	-san-	-san-	4ee-\	-san-	-san-	4g/	4ee-\
4C/	.	4ee-\	4g/	4C/	-na	-na	4c\	-na	-na	4g\	-na	-na	4ee-\	-na	-na	4g/	4ee-\
*	*	*	*	*	*Xij	*	*	*Xij	*	*	*Xij	*	*	*	*	*	*
4c\	.	4ee-\	4gg\	4c\	O-	o-	4c\	in-	o-	4g\	O-	o-	4ee-\	o-	o-	4g/	4ee-\
!	!	!LO:LB:g=original	!	!	!	!	!	!	!	!	!	!	!	!	!	!	!
=30	=30	=30	=30	=30	=30	=30	=30	=30	=30	=30	=30	=30	=30	=30	=30	=30	=30
!	!	!	!	!	!	!	!LO:TX:t=P:problem:takt zapisany repetycją	!	!	!	!	!	!	!	!	!	!
4Bn\	6	4dd\	4gg\	4Bn\	-ſan-	-san-	4Bn\yy	-ſan-	-san-	4g\	-ſan-	-san-	4dd\	-san-	-san-	4g/	4dd\
!	!	!LO:SIC:v:o=4b-\	!	!	!	!	!	!	!	!	!	!	!	!	!	!	!
4G\	.	4bn\	4dd\	4G\	-na	-na	4d\yy	-na	-na	4g\	-na	-na	4dd\	-na	-na	4g/	4dd\
*	*	*	*	*	*	*	*	*ij	*	*	*ij	*	*	*	*	*	*
4B\	6	4dd\	4gg\	4BnX\	O-	o-	4Bn\yy	O-	o-	4g\	O-	o-	4dd\	o-	o-	4g/	4dd\
4c\	.	4ee-\	4gg\	4c\	-ſan-	-san-	4c\yy	-ſan-	-san-	4g\	-ſan-	-san-	4ee-\	-san-	-san-	4g/	4ee-\
4C/	.	4ee-\	4g/	4C/	-na	-na	4c\yy	-na	-na	4g\	-na	-na	4ee-\	-na	-na	4cc\	4ee-\
*	*	*	*	*	*	*	*	*Xij	*	*	*Xij	*	*	*Xij	*	*	*
4E-/	.	4ee-\	4gg\	4E-\	in	in	4c\yy	in	in	4g\	in	in	4ee-\	in	in	4ee-\	4gg\
=31	=31	=31	=31	=31	=31	=31	=31	=31	=31	=31	=31	=31	=31	=31	=31	=31	=31
4F\	.	4cc\	4aa-X\	4F\	ex-	ex-	4f\	ex-	ex-	4a-X\	ex-	ex-	4cc\	ex-	ex-	4cc\	4aa-X\
!	!	!	!	!	!	!	!	!	!	!	!	!	!LO:TX:a:t=P:problem:♮ above	!	!	!	!
4G\	.	4bn\	4.gg\	2G\	-cael-	-cel-	2d\	-cel-	-cel-	2g\	-cel-	-cel-	2bny\	-cel-	-cel-	4.g/	4.dd\
4GG/	.	4b\	.	.	.	.	.	.	.	.	.	.	.	.	.	.	.
.	.	.	8gg\	.	.	.	.	.	.	.	.	.	.	.	.	8f/	8dd\
!	!	!	!LO:LB:g=original	!	!	!	!LO:MO:mod=2e-	!	!	!LO:MO:mod=2g	!	!	!	!	!	!LO:MO:mod=2e-	!
2C/	.	2cc\	2gg\	2C/	-ſis	-sis	4e-\	-sis	-sis	4g\	-sis	-sis	2cc\	-sis	-sis	4e-/	2cc\
!	!	!	!	!	!	!	!LO:MO:mod=.	!	!	!LO:MO:mod=.	!	!	!	!	!	!LO:MO:mod=.	!
.	.	.	.	.	.	.	4r	.	.	4r	.	.	.	.	.	4r	.
4r	.	4r	4r	4r	.	.	4r	.	.	4r	.	.	4r	.	.	4r	4r
=32	=32	=32	=32	=32	=32	=32	=32	=32	=32	=32	=32	=32	=32	=32	=32	=32	=32
!!LO:TX:a:t= :mod=Tarde
!	!	!	!	!	!	!	!	!	!	!	!	!	!	!	!	!	!LO:TX:b:t=in excelsis:mod=
!LO:TX:a:t=tarde:mod=	!	!	!LO:TX:b:t=tarde:mod=	!LO:TX:a:t=tarde:mod=	!	!	!	!	!	!LO:TX:b:t=tarde:mod=	!	!	!LO:TX:a:t=tarde:mod=	!	!	!	!LO:TX:a:t=tarde:mod=
2F\	.	2cc\	2aa-X\	2F\	In	in	2f\	in	in	2a-X\	in	in	2cc\	in	in	2a-X/	2cc\
!	!	!	!	!	!	!	!LO:TX:a:t=tarde:mod=	!	!	!	!	!	!	!	!	!	!
4F\	.	4cc\	4aa-\	4F\	ex-	ex-	4f\	ex-	ex-	4a-\	ex-	ex-	4cc\	ex-	ex-	4a-/	4cc\
!	!	!	!	!	!	!	!	!	!	!	!	!	!	!	!	!LO:LB:g=original	!
2.F\	.	2.cc\	2.aa-\	2.F\	-cael-	-cel-	2.f\	-cel-	-cel-	2.a-\	-cel-	-cel-	2.cc\	-cel-	-cel-	2.a-/	2.cc\
=33	=33	=33	=33	=33	=33	=33	=33	=33	=33	=33	=33	=33	=33	=33	=33	=33	=33
!	!	!	!LO:MO:mod=1.gg	!	!	!	!LO:MO:mod=1.e	!	!	!LO:MO:mod=1.g	!	!	!	!	!	!	!LO:TX:b:t=verte:mod=
1.C	.	1.cc	2.gg\	1.C	-ſis	-sis	2.en\	-sis	-sis	2.g\	-sis	-sis	1.cc	-sis	-sis	1.g	1.cc
!	!	!	!LO:MO:mod=.	!	!	!	!LO:MO:mod=.	!	!	!LO:MO:mod=.	!	!	!	!	!	!	!
.	.	.	2.ryy	.	.	.	2.ryy	.	.	2.ryy	.	.	.	.	.	.	.
==	==	==	==	==	==	==	==	==	==	==	==	==	==	==	==	==	==
*-	*-	*-	*-	*-	*-	*-	*-	*-	*-	*-	*-	*-	*-	*-	*-	*-	*-
!!!system-decoration: [(g1)][(g2)][(g3)]s9
!!!ENC: Andrzej Borzym
!!!END: 2020-04-29
!!!ENC: Anna Matuszewska
!!!END: 2020-12-02
!!!ENC2: Marta Lawrence
!!!END2: 2023-08-27
!!!ENC-mod: Marta Lawrence
!!!END-mod: 2023-08-27
!!!filter-modern: sic -sq | tie -s | autostem -r | shed -e "s/-//B" | humtr -p | shed -e "s/yy//" | shed -k -e "s/([^a-gA-Gn#X-])[<>]/$1/g" | shed -e "s/:rj/:RJ/L" | shed -e "s/TX(.*):t=P:/tx$1:t=P:/LG" | shed -k -e "s/r[a-gA-G]+/r/D" | shed -e "s/LO:N:/LO:n:$1/L" | shed -k -e "s/([#-])[X]/$1/g; s/[n]/$1/g;" | modori -m
